X:1
T:As We Go Marching Home
T:James Henry Fillmore, Sr.
T:As We Go Marching Home
T:Public Domain
T:Public Domain
C:James Henry Fillmore, Sr.
Z:Public Domain
%%score ( 1 2 ) ( 3 4 )
L:1/8
M:4/4
K:G
V:1 treble 
V:2 treble 
V:3 bass 
V:4 bass 
V:1
 D2 | G2 F2 G2 A2 | (B3 A) G2 [FA]2 | [GB]2 [FA]2 [GB]2 [Gc]2 | ([Gd]3 [Fc]) [GB]2 [DG]2 | %5
w: 1.~The|of Heav’n are ring-|Heav’n * are ring-|go march- ing home,|As * we go|
w: 2.~The|of Heav’n is shin-|Heav’n * is shin-|go march- ing home,|As * we go|
w: 3.~The|of Heav’n are play-|Heav’n * are play-|go march- ing home,|As * we go|
 [FA]2 [GB]2 [FA]2 [GB]2 | [FA]6 [DB]2 | [FA]2 [EG]2 [DF]2 [^CE]2 | (z2 DD D2) [CD]2 | %9
w: march- ing home. The|bells of|Heav’n are ring- ing,|* * * The|
w: march- ing home. The|light of|Heav’n is shin- ing,|* * * The|
w: march- ing home. The|harps of|Heav’n are play- ing,|* * * The|
 [B,G]2 [CF]2 [DG]2 [FA]2 | ([GB]3 [FA]) G2 [FA]2 | [GB]2 [FA]2 [GB]2 [Gc]2 | %12
w: * of Heav’n are|sing- * ing, The|y gates are swing-|
w: * of night’s de-|clin- * ing, The|have sil- ver lin-|
w: * of Heav’n are|pray- * ing, To|their hom- age pay-|
 ([Gd]3 [Fc]) [GB]2 [Gd]2 | [Ge]2 [Gd]2 [Fc]2 [GB]2 | (d2 c2) [GB]2 [EA]2 | %15
w: ing, * As we|go march- ing home.||
w: ing, * As we|go march- ing home.||
w: ing, * As we|go march- ing home.||
 [DG]2 [DF]2 [FB]2 [FA]2 | G6 |] %17
w: ||
w: ||
w: ||
V:2
 D2 | G2 F2 G2 A2 | B3 A G2 x2 | x8 | x8 | x8 | x8 | x8 | D6 x2 | x8 | x4 G2 x2 | x8 | x8 | x8 | %14
w: bells|ing, The bells of|ing, As we||||||choirs||pearl-||||
w: light|ing, The light of|ing, As we||||||shade||clouds||||
w: harps|ing, The harps of|ing, As we||||||heirs||God||||
 A4 x4 | x8 | G6 |] %17
w: |||
w: |||
w: |||
V:3
 z2 | z8 | z6 D,2 | G,2 D,2 G,2 A,2 | (B,3 A,) G,2 [G,B,]2 | [D,D]2 [G,D]2 [D,D]2 [G,D]2 | %6
 (D,3 E, F,2) [G,D]2 | [A,D]2 A,2 [A,,A,]2 [A,,G,]2 | ([D,F,]2 [C,A,]2 [B,,G,]2) [A,,F,]2 | %9
 [G,,G,]2 [A,,D]2 [B,,D]2 [D,D]2 | (D3 C) [G,B,]2 [D,D]2 | [G,D]2 [D,D]2 [G,D]2 [A,D]2 | %12
 (B,3 A,) [G,D]2 [B,D]2 | C2 [B,D]2 [A,D]2 [G,D]2 | (F,2 D,2) [G,D]2 [C,C]2 | %15
 [D,B,]2 [D,A,]2 [D,D]2 [D,C]2 | [G,,B,]6 |] %17
V:4
 x2 | x8 | x8 | x8 | x8 | x8 | D6 x2 | x2 A,2 x4 | x8 | x8 | G,4 x4 | x8 | D4 x4 | C2 x6 | D4 x4 | %15
 x8 | x6 |] %17

